symbols/web/report_off/materialsymbolsoutlined/report_off_wght100gradN25fill1_20px.svg

<svg xmlns="http://www.w3.org/2000/svg" height="20" width="20"><path d="m16.875 17.708-2.792-2.812-1.458 1.416h-5.25l-3.687-3.645V7.375l1.437-1.479-2.833-2.771.458-.458L17.333 17.25Zm-1.146-4.416-5.417-5.48v-1.5h-.604v.896L6.75 4.312l.625-.645h5.25l3.708 3.708v5.292ZM10 13.5q.188 0 .312-.146.126-.146.126-.292 0-.041-.042-.124-.042-.084-.104-.188l.02.042q-.104-.084-.187-.125-.083-.042-.125-.042-.167 0-.302.135-.136.136-.136.302 0 .146.136.292.135.146.302.146Z"/></svg>

<svg xmlns="http://www.w3.org/2000/svg" height="20" width="20"><path d="M16.875 17.708 14.083 14.896 12.625 16.312H7.375L3.688 12.667V7.375L5.125 5.896L2.292 3.125L2.75 2.667L17.333 17.25ZM15.729 13.292 10.312 7.812V6.312H9.708V7.208L6.75 4.312L7.375 3.667H12.625L16.333 7.375V12.667ZM10 13.5Q10.188 13.5 10.312 13.354Q10.438 13.208 10.438 13.062Q10.438 13.021 10.396 12.938Q10.354 12.854 10.292 12.75L10.312 12.792Q10.208 12.708 10.125 12.667Q10.042 12.625 10 12.625Q9.833 12.625 9.698 12.76Q9.562 12.896 9.562 13.062Q9.562 13.208 9.698 13.354Q9.833 13.5 10 13.5Z"/></svg>
